X:1963
L:1/8
M:6/8
K:G
|: G2 G dGG | edB dBA | G2 G dGG | edB AGE | G2 G dGG | edB def | gfe dBA |1 B2 e dBA :|2 
 B2 e dBd |: g2 g bge | f2 f afd | g3 bge | edB GBd | g2 g bge | fef a2 a | bag agf | e2 g edB :|

